usr/share/icons/biglinux-icons-material/symbolic/actions/mail-send-receive-symbolic.svg

<svg width="16" height="16" enable-background="new" version="1.1" xmlns="http://www.w3.org/2000/svg">
 <g fill="#363636">
  <path d="m1.4902 7-1.2852 1.6777c-0.13316 0.17448-0.20523 0.38793-0.20508 0.60742v3.7148c0 1.108 0.892 2 2 2h11c1.108 0 1.9979-0.892 2-2v-3.7148c1.48e-4 -0.21949-0.07192-0.43294-0.20508-0.60742l-1.2852-1.6777h-1.2598l1.5312 2h-3.832c-0.23757 1.1639-1.2613 1.9999-2.4492 2-1.1864-0.00199-2.208-0.83756-2.4453-2h-3.8359l1.5312-2zm-0.49023 3h3.3418c0.57875 1.2201 1.8078 1.9984 3.1582 2 1.3503-0.0033 2.5693-0.78633 3.1465-2h3.3535v3c0 0.554-0.446 1-1 1h-11c-0.554 0-1-0.446-1-1z"/>
  <path d="m5.5 8c-0.277 0-0.5-0.223-0.5-0.5v-4.793l-1.2676 1.2676c-0.19587 0.19587-0.51116 0.19587-0.70703 0s-0.19587-0.51116 0-0.70703l2.1211-2.1211c0.047012-0.047012 0.10324-0.08407 0.16602-0.10938 0.057904-0.023336 0.12105-0.037109 0.1875-0.037109 0.066453 0 0.1296 0.013774 0.1875 0.037109 0.062778 0.0253 0.119 0.062358 0.16602 0.10938l2.1211 2.1211c0.19587 0.19587 0.19587 0.51116 0 0.70703s-0.51116 0.19587-0.70703 0l-1.2676-1.2676v4.793c0 0.277-0.223 0.5-0.5 0.5z"/>
  <path d="m9.5 0.99998c-0.277 0-0.5 0.223-0.5 0.5v4.793l-1.2676-1.2676c-0.19587-0.19587-0.51116-0.19587-0.70703 0s-0.19587 0.51116 0 0.70703l2.1211 2.1211c0.04701 0.047012 0.10324 0.08407 0.16602 0.10938 0.057904 0.023336 0.12105 0.037109 0.1875 0.037109s0.1296-0.013774 0.1875-0.037109c0.06278-0.0253 0.119-0.062358 0.16602-0.10938l2.1211-2.1211c0.19587-0.19587 0.19587-0.51116 0-0.70703s-0.51116-0.19587-0.70703 0l-1.2676 1.2676v-4.793c0-0.277-0.223-0.5-0.5-0.5z"/>
 </g>
</svg>

<svg xmlns="http://www.w3.org/2000/svg" width="16" height="16"><g fill="#dedede"><path d="M1.49 7 .205 8.678A1 1 0 0 0 0 9.285V13c0 1.108.892 2 2 2h11a1.997 1.997 0 0 0 2-2V9.285a1 1 0 0 0-.205-.607L13.51 7h-1.26l1.531 2H9.949a2.5 2.5 0 0 1-2.45 2 2.5 2.5 0 0 1-2.444-2H1.219l1.53-2zM1 10h3.342A3.5 3.5 0 0 0 7.5 12a3.496 3.496 0 0 0 3.146-2H14v3c0 .554-.446 1-1 1H2c-.554 0-1-.446-1-1z"/><path d="M5.5 8a.499.499 0 0 1-.5-.5V2.707L3.732 3.975a.499.499 0 1 1-.707-.707l2.121-2.122a.497.497 0 0 1 .541-.109.496.496 0 0 1 .167.11l2.12 2.12a.499.499 0 1 1-.706.708L6 2.707V7.5c0 .277-.223.5-.5.5z"/><path d="M9.5 1c-.277 0-.5.223-.5.5v4.793L7.732 5.025a.499.499 0 1 0-.707.707l2.121 2.122a.497.497 0 0 0 .541.109.496.496 0 0 0 .167-.11l2.12-2.12a.499.499 0 1 0-.706-.708L10 6.293V1.5c0-.277-.223-.5-.5-.5z"/></g></svg>
